outputs/icons/editor/distribute_vertical_sharp.svg

<svg xmlns="http://www.w3.org/2000/svg" width="1200" height="1200" fill="none"><g clip-path="url(#a)"><path fill="#000" d="M1100 100v100H100V100zM350 525v150h500V525zm-250 475v100h1000v-100z"/></g><defs><clipPath id="a"><path fill="#fff" d="M0 0h1200v1200H0z"/></clipPath></defs></svg>

<svg width="1200" height="1200" viewBox="0 0 1200 1200" fill="none" xmlns="http://www.w3.org/2000/svg"><g clip-path="url(#clip0_125_1469)"><path d="M1100 100V200H100V100H1100ZM350 525V675H850V525H350ZM100 1000V1100H1100V1000H100Z" fill="#1D1E23"/></g><defs><clipPath id="clip0_125_1469"><path width="24" fill="white" d="M0 0H1200V1200H0V0z"/></clipPath></defs></svg>
